src/svg/creative-commons-nc.svg

<svg height="1000" width="968.8" xmlns="http://www.w3.org/2000/svg">
    <path d="m483.6 15.6c273 0 485.2 210.8 485.2 484.4 0 287.5-231.5 484.4-485.2 484.4-262.7 0-483.6-216.4-483.6-484.4 0-259.6 204.5-484.4 483.6-484.4z m-374.6 353.7c-14.5 39.9-21.7 83.4-21.7 130.7 0 216.6 179.9 395.3 397.9 395.3 239 0 346-198.8 348.6-203.3l-182.4-81.3c-15.1 72.5-80.5 103.6-133.2 108.2v74.5h-56.3v-74.7c-53.7-0.5-102.7-19.9-147.1-58l66.6-67.3c62 57.4 168.8 62.1 168.8-4.3 0-12.1-4.3-21.9-12.9-29.5-27.7-11.7-3.5-0.2-428.3-190.3z m376.2-267.2c-75 0-219.6 17-333.1 181.7l185.2 83c19.5-61.1 78.9-83.8 124.6-86.5v-74.4h56.3v74.4c44.3 2.3 84.7 17.4 121.1 44.9l-63.1 64.8c-83.4-58.4-163.1-15.6-136.7 21.7 104.3 47.1 85.5 38.7 181.6 81.3l248.2 110.7c8-34 12.1-68.5 12.1-103.7 0-111.3-38.6-205.1-115.8-281.1-76.7-77.9-170.3-116.8-280.4-116.8z" />
  </svg>

<svg height="1000" width="968.8" xmlns="http://www.w3.org/2000/svg"><path d="M483.6 15.6c273 0 485.2 210.8 485.2 484.4 0 287.5 -231.5 484.4 -485.2 484.4C220.9 984.4 0 768 0 500 0 240.4 204.5 15.6 483.6 15.6zM109 369.3C94.5 409.2 87.3 452.7 87.3 500c0 216.6 179.9 395.3 397.9 395.3 239 0 346.1 -198.8 348.6 -203.3L651.4 610.7c-15.1 72.5 -80.5 103.6 -133.2 108.2v74.5h-56.3v-74.6c-53.7 -.6 -102.7 -20 -147.1 -58.1l66.6 -67.3c62 57.4 168.8 62.1 168.8 -4.3 0 -12.1 -4.3 -21.9 -12.9 -29.5C509.6 547.9 533.8 559.4 109 369.3zM485.2 102.1c-75 0 -219.6 17 -333.1 181.7l185.2 83c19.5 -61.1 78.9 -83.8 124.6 -86.5v-74.4h56.3v74.4c44.3 2.3 84.7 17.4 121.1 44.9L576.2 390C492.8 331.6 413.1 374.4 439.5 411.7c104.3 47.1 85.5 38.7 181.6 81.3l248.2 110.7c8 -34 12.1 -68.5 12.1 -103.7 0 -111.3 -38.6 -205.1 -115.8 -281.1C688.9 141 595.3 102.1 485.2 102.1z"/></svg>
